X: 17116
T: Heights Of Muingvuara, The
R: reel
M: 4/4
K: Gmajor
D|:G2FG DEFD|GFDC B,G,B,C|DEFD GFGB|dBcA GFD2|
DGFG DEFD|GFDC B,G,B,C|DEFD GFGB|1 AGFA G3D:|2 AGFA G2ef||
|:gdeg GBdg|bgag edef|gBBA BcBA|GBdB (3A_B=B cd|
gdeg GBdg|bgag edef|gd^cd BGFG|1 FGAF G2ef:|2 FGAF G3||

